X: 1
T: Polska efter Spel Jutte
R: Polska
S: efter Spel Jutte
O: Ramsele, Ångermanland
B: SMUS - katalog Ån1 bild 10 (K P Leffler)
Z: Håkan Lidén, 2009-01-06
M: 3/4
L: 1/8
K: Dm
d2 ^cA =Bc | de fg/f/ ef/e/ | d2 ^cA =Bc | d2 e2 f2 | d2 ^cA =Bc | 
de fg/f/ ef/e/ | d2 ^cA =Bc | ^cd D4 :: A=B/^c/ dc/B/ A2 | A>G (3EGE F2 | E>F D>E F>G | 
(3ABA GG A2 | A=B/^c/ dc/B/ A2 | A>G (3EGE F2 | E>F D>E (3FGF | E^C D4 :|]

